dist/img/ft-phone.svg

<svg width="20" height="21" viewBox="0 0 20 21" fill="none" xmlns="http://www.w3.org/2000/svg">
<path d="M7.91045 7.83333C8.50746 7.47378 9.16418 7.11423 9.76119 6.75468C9.10448 5.31648 8.44776 3.9382 7.79104 2.5C5.8806 2.79963 3.91045 3.15918 2 3.51873C2.77612 12.6273 7.91045 17.721 16.9254 18.5C17.2836 16.5824 17.6418 14.6049 18 12.6873C16.5672 12.0281 15.194 11.3689 13.7612 10.7097C13.403 11.309 13.0448 11.9682 12.6269 12.5674C10.597 12.2079 8.26866 9.87079 7.91045 7.83333Z" stroke="white" stroke-width="1.5" stroke-miterlimit="10"/>
</svg>

<svg width="20" height="21" fill="none" xmlns="http://www.w3.org/2000/svg"><path d="M7.91 7.833c.597-.36 1.254-.719 1.851-1.078-.657-1.439-1.313-2.817-1.97-4.255-1.91.3-3.88.66-5.791 1.019.776 9.108 5.91 14.202 14.925 14.981.359-1.918.717-3.895 1.075-5.813-1.433-.659-2.806-1.318-4.239-1.977-.358.599-.716 1.258-1.134 1.857-2.03-.36-4.358-2.696-4.717-4.734z" stroke="#fff" stroke-width="1.5" stroke-miterlimit="10"/></svg>
